X:84
T:Reel 84
M:4/4
K:Dmaj
L:1/8
AG|F>D (3DDD DEDB,|A,B,CD EFGE|F>D (3DDD A,B,A,G,|A,B,CD DGFE|FDDF A,B,D2|FDFA d2cd|ecdB AGFD|EDEF G2|FG|Addc d2de|fddc dcBd|ABcd ecdf|edcB AGFG|Addc dfed|AGFG F2ED|CDEF GEBd|cAGE D2|
